X:1
T:Lesson 8 - Dixie
M:C
K:D
L:1/8
!mf!vAF|D2 D2 DEFG|A2 A2 A2 F2|B2 B2 B3 A|B3 A Bcde|f6 dA|
d6 AF|A6 EF|D6:|]!f!vAA|d2 f2 e2 d2|B2 d4 B2|e6 B2|
e6 A2|ud2 f2 e2 d2|B2 c2 d3 B|A2 F2 d3 F|F2 E4 F2|vD6 F2|
E6 G2|F2 A2 f3 d|e2 d4 F2|uD6 F2|E6 G2|F2 A2 f3 d|e2 d6|]
